X:1
T:Prelude and Fugue No. 8, BWV 853
T:Prelude and Fugue No. 8, BWV 853
T:Well-Tempered Clavier I
T:Johann S. Bach, Arr. Darryl R. McGee 
T:© 2020 Darryl9720
T:© 2020 Darryl9720
T:© 2020 Darryl9720
T:© 2020 Darryl9720
T:© 2020 Darryl9720
T:© 2020 Darryl9720
T:© 2020 Darryl9720
T:© 2020 Darryl9720
C:Johann S. Bach, Arr. Darryl R. McGee
Z:© 2020 Darryl9720
%%score { ( 1 3 4 5 ) | ( 2 6 ) }
L:1/8
M:3/2
K:G
V:1 treble nm="Harpsichord" snm="Hch."
V:3 treble 
V:4 treble 
V:5 treble 
V:2 bass 
V:6 bass 
V:1
"^Praeludium VIII. (Raised)" B4 z2 z B e3 g | c4 z3 e a3 c' | ^d4 z3 f PA2- A/G/A/B/ | %3
 PG3 F/E/ g4 !arpeggio![GBeg]4 | !arpeggio![GBdg]4 z2 z/ g/=f/e/ f3 d | %5
 [EGce]4 !arpeggio![Gce]4 !arpeggio![Gce]4 | !arpeggio![Beb]4 z2 z/ e/d/c/ d3 B | %7
 Pc3 B/A/ !arpeggio![eac']4 !arpeggio![eac']4 | !arpeggio![fac']4 z2 z/ b/a/g/ f/g/f/g/ a/g/a/f/ | %9
 Pg3 f/e/ !arpeggio![Begb]4 !arpeggio![degb]4 | %10
 !arpeggio![^ceg^c']4 z2 z/ f/e/d/ c/d/c/d/ e/d/e/c/ | Pd3 ^c/B/ [Bdf-]2 f/g/f/e/ d/c/B/A/ GA/F/ | %12
 G2- GB/d/ g2- g/f/e/d/ ^c3/2e/4d/4 c/d/e | F3/2^G/4^A/4 PA3/2G/4A/4 B8- | B8 ^A4 | B3 ^c d4 d4 | %16
 d3 c/B/ =f4- f3 e/d/ | ^g4- g3 f/e/ a4- | a^gab Pb6 a2 | a3 c' f3 g/a/ ^d3 e/f/ | %20
 B3 a ^d3 e/f/ B3 ^c/d/ | e3 d/c/ d4 d4 | d3 c/B/ c4 c4 | c3 B/A/ f3 c PB3 c/A/ | %24
 [EG-]4 G/E/F/G/ A/B/^c/^d/ e/f/g/a/ g/f/g/e/ | =f3 c/_B/ A3 B/c/ =F3 G/A/ | %26
 ^D3 F/A/ c3 B/A/ f3 e/^d/ | (c' ^a2) b e4 ^d3 e | e12- | e4- e2- e/e/d/c/ d3 B | %30
 c4- c2- c/c/B/A/ B3 ^G | [C^DA]4 [CDA]4 [CDA]4 | [CFA]4 [CFA]4 [CFA]4 | [^DFA]4 [DFA]4 [DFA]4 | %34
 c4- c/B/A/G/ F/E/^D/F/ A/c/^d/f/ a/c'/b/d/ | e3 B{A} G4 PFE F2 | E4- E2- E/F/^G/A/ B2- B/=F/E/D/ | %37
 C4- C>E F/^G/A/B/ c-c/4B/4A/4=G/4 F/G/A/F/ | ^D8- D3 D | !fermata!E12 |] %40
[K:F][M:4/4]"^Fuga VIII. (Lowered)" z8 | z8 | z4 A2 d2- | dfed cd e2 | A2 d3 c =B2 | %45
 A=B c2- c3 _B | A2 d2- d^cde | f2 ef gefg | agfe f2 ed | ^c d2 c d=c B2- | BA/G/ AB/c/ de/f/ e>d | %51
 ^c2 d=c BAGF | EF G2- GF/E/ FG | A2 Bc/d/ G2 z A | Bcde fgab- | bc f4 e2- | e2 dc =B^cde | %57
 f2 ed cdef | c2 =B2 A2 z2 | A2 e2- efed | cd e2 A2 d2- | dc =B2 A2 z g- | gf e2- e/d/e/f/ d>e | %63
 e2 a2- abag | ^fg a2 d2 g2- | gf e4 d2- | d2 g3 agf | ef g2 c2 f2- | f_edg c f2 =e | f2 c2- cBcd | %70
 ed c2 g2 c2- | cd e2 f4- | fedc =B2 ^c2 | d4 c4 | Bcd_e ABcd | BAGF E2 FG | A2 =B^c d3 =c | %77
 =B^c d4 c2 | d2 ^cd egfe | dc BA/B/ A=B^cd | eAag fgab | e2 ^f2 g=fed | ^c2 d2- d=cBA | %83
 BA G2- GF/E/ FG | A2 D2- D^CDE | FE D2 A2 D2- | DE ^F2 G2 g2 | d3 c d3 e | f3 e d2 a2 | %89
 d3 d ^cdec | defg aAde | ^c2 z2 A2 d2- | d_edc Bc d2 | GA/B/ AB c2 F2- | FEFG AG F2 | %95
 _e4- e^c d2- | dfed ^ce a2- | abag fg a2 | d2 g2- gf e2 | d2 c2 B2 A2 | G2 F2 E2 z =B | %101
 ^cd e2- ed =c/B/c/^f/ | g/a/ b2 a/g/ ade^f | g2 z2 a2 d2- | dBcd _ed c2 | g2 d2- de ^f2 | %106
 gagf ef g2- | gf ef/g/ a/g/ a2 g/f/ | e f2 e fc f2- | fgf_e de f2 | B2 _e2- ed c2 | %111
 B2 _e2- e^c d2- | d2 g2- gg^f=f- | ffe_e d2 c2 | B3 B A3 f | G4- GF/=E/ FG | A2 z2 e4 | a6 b2 | %118
 a2 g2 f2 g2 | a4 d4 | g6 f2 | e4 d4- | dB G2- GA B2- | BG E2- EF G2- | GE ^C2- CCDE | %125
 F^FGA B=B^cd | d2 ^c2 !fermata!d4 |] %127
V:2
[I:staff -1] [EG]4 [EG]4 [EG]4 | [EA]4 [EAc]4 [EAc]4 | [EFA]4 [^DFA]4 [DF]4 | %3
 E4[I:staff +1] z3 B, G,3 E, | B,,4 !arpeggio![B,,D,G,B,]4 !arpeggio![B,,D,G,B,]4 | %5
 [C,E,G,C]4 z3 G, E,3 C, | ^G,,4 !arpeggio![G,,B,,E,^G,]4 !arpeggio![G,,B,,E,G,]4 | %7
 !arpeggio![A,,C,E,A,]4 z3[I:staff -1] c A3 F | ^D4 !arpeggio![DFB]4 !arpeggio![DFB]4 | %9
 !arpeggio![EGB]4[I:staff +1] z3[I:staff -1] G E3 ^C | %10
[I:staff +1] ^A,4 !arpeggio![A,^CF]4 !arpeggio![A,CF]4 | %11
 !arpeggio![B,DF]4 [B,DF]4 !arpeggio![B,DF]4 | [E,B,D]4 !arpeggio![E,B,^C]4 !arpeggio![E,B,C]4 | %13
 !arpeggio![E,^A,^C]4 !arpeggio![D,F,B,]4 !arpeggio![E,B,]4 | F,4 [F,,F,]4 [F,,F,]4 | %15
 [B,,F,B,]4 z3 B,, D,3 F, | ^G,,4- G,,2- G,,/B,,/A,,/G,,/ D,4- | %17
 D,3 C,/B,,/ =F,E,F,D, C,/B,,/A,,/B,,/ C,/A,,/B,,/C,/ | =F,,2- F,,/=F,/E,/D,/ E,3 D, E,3 E,, | %19
 A,,4 z2 z C F,3 G,/A,/ | ^D,3 E,/F,/ B,,3 A, D,3 E,/F,/ | G,,4 ^G,,3 B, ^G,3 E, | %22
 A,,4 z3 C A,3 F, | !arpeggio![^D,F,A,]4 !arpeggio![D,F,B,]4 !arpeggio![D,F,B,]4 | %24
 [E,G,B,]4 !arpeggio![E,G,B,]4 !arpeggio![E,G,B,]4 | !arpeggio![A,,C,=F,A,]4 z8 | [A,,F,B,]4 z8 | %27
 z4 [B,,E,G,B,]4 [B,,F,A,B,]4 | [C,C]4 [CE]4 [CE]4 | [^G,B,E]4 [G,B,E]4 [G,B,E]4 | %30
 [A,C]4 =F,4 F,4 | F,4- F,2- F,/G,/F,/E,/ F,>G, A,/F,/G,/A,/ | %32
 ^D,4- D,2- D,/E,/D,/^C,/ D,>E, F,/D,/E,/F,/ | %33
 C,4- C,2- C,/D,/C,/B,,/ C,/B,,/A,,/B,,/ C,/A,,/B,,/C,/ | ^D,,4 z8 | z3 E, [E,G,]4 [F,A,]4 | %36
 !arpeggio![E,^G,B,D]4 !arpeggio![E,G,B,D]4 !arpeggio![E,G,B,D]4 | [E,A,]4 [E,A,]4 [E,A,]4 | %38
 [E,F,]4 [E,F,]4 E,4 | !fermata![E,,B,,E,]12 |][K:F][M:4/4] z8 | z8 | z8 | z8 | z8 | z8 | z8 | %47
 D,2 A,3 B,A,G, | F,G, A,2 D,2 G,2- | G,F, E,2 D,2 D2 | ^C2 =C2 =B,2 _B,2 | A,A,, D,2- D,F,E,D, | %52
 ^C,D, E,2 A,,2 D,2- | D,C, B,,4 A,,2 | G,,A,,B,,C, D,E,F,G, | A,G,A,B, C2 C,2 | %56
 F,,2 F,2- F,E,D,C, | =B,,A,,^G,,E,, A,,B,,C,D, | E,D,E,E,, A,,^G,,A,,=B,, | %59
 C,=B,,C,D, E,D, C,D,/E,/ | F,/E,/F, ^G,,2 A,,2 =B,,2 | C,A,,E,D, ^C, D,2 C, | %62
 D,=B,^G,A, F,E, F,2 | E,2 z2 F,2 B,2- | B,CB,A, G,^F,G,A, | =B,2 C_B, A,G,^F,D, | %66
 G,A,G,F, E,F,E,D, | C,B,A,G, F,G,F,_E, | D,C,B,,G,, A,,F,,C,C,, | F,,G,,A,,G,, F,,F,E,D, | %70
 C,2 F,4 E,2 | F,E,D,^C, D,2 A,,=B,, | C,2 F,,2 G,,2 A,,2 | B,,A,,G,,F,, _E,,2 D,,2 | %74
 G,,A,,B,,C, D,2 z D, | G,A,B,G, A,G,F,E, | D,2 G,3 ^F,/E,/ F,2 | G,F,E,D, E,F,G,A, | %78
 D,/D/C/B,/ A,2- A,F,G,A, | B,A, G,2 D2 A,2- | A,=B, ^C2 D_B,F,G, | A,2 D,2 G,A, B,2 | A,4 z4 | %83
 z4 A,,2 D,,2- | D,,^C,,D,,E,, F,,E,, D,,2 | A,,2 D,,2- D,,E,, ^F,,2 | G,,2 A,,2 B,,C,B,,A,, | %87
 G,,A,, B,,_E,/C,/ G,2 B,,C, | D2 A,2- A,B, C2- | C[I:staff -1]cBA GFGE | %90
[I:staff +1] A,G,F,E, D,C, B,,2 | A,,2 D,3 _E,D,C, | B,,C, D,2 G,,A,, B,,2 | E,2 C2 F,3 E, | %94
 F,G,A,G, F,2 B,A, | G,2[I:staff -1] c2 F4 |[I:staff +1] G,A,B,G, A,3 G, | F,G, A,2 D,E, ^F,2 | %98
 G,F,E,D, ^C,D,A,,A, | B,D,E,^F, G,E,^C,D, | =B,,^C,D,D,, A,,2 z2 | A,4 D4- | D2 _E2 D2 C2 | %103
 B,2 C2 D4 | G,4 C4- | C2 B,2 A,4 | G,2 C2- CDCB, | A,B, C2 F,2 B,2- | %108
 B,A, G,2 F,_E, D,/C,/D,/E,/ | A,,F,,G,,A,, B,,C, D,_E,/F,/ | G,A,/B,/ C,D,/_E,/ F,, F,2 ^F, | %111
 G,^F,G,A, B,A,G,=F, | E,F,E,D, ^C,^C/D/ _EA, | B,M=B,CA, ^F, G,2 F, | G,F,_E,D, C,^C,D,A,, | %115
 B,,=B,,C,G,, A,,4- | A,,E, A,2- A,B,A,G, | F,G, A,2 D,E,/F,/ G,2- | G,F,E,^C DE/F/ ED | %119
 ^C D2 =C- CD/_E/ DC | B,CB,A, G,F,_E,D, | G,2 C2- CB, A,2 | G,3 A, B,A,G,F, | E,3 F, G,F,E,D, | %124
 ^C,3 D, E,2 F,G, | A,A,B,[I:staff -1]C DDEF |[I:staff +1] A,2 A,,2 !fermata!D,,4 |] %127
V:3
 x12 | x12 | x8 x/4 x/4 x/4 x/4 x/4 x/4 x/4 x/4 x/ x3/2 | %3
 x/4 x/4 x/4 x/4 x/4 x/4 x/4 x/4 x/4 x/4- x/ x9 | x12 | !arpeggio!x4 x8 | x12 | %7
 x/4 x/4 x/4 x/4 x/4 x/4 x/4 x/4 x/4 x/4- x/ x9 | x12 | %9
 x/4 x/4 x/4 x/4 x/4 x/4 x/4 x/4 x/4 x/4- x/ x9 | x12 | %11
 x/4 x/4 x/4 x/4 x/4 x/4 x/4 x/4 x/4 x/4- x/ x !arpeggio!x4 x4 | !arpeggio!x4 x8 | %13
 x2 x/8 x/8 x/8 x/8 x/8 x/8 x/8 x/8 x/8 x/8 x/8 x/8 x/ z3 F =G3 E | %14
 ^C2- C/D/C/D/ E/D/C/D/ E/F/E/F/ C4 | D3 E [FB]4 [FB]4 | [=FB]3 x [Bd]4- [Bd]3 x | %17
 [Bd]4- [Bd]3 x [ce]4 | x4 ^g8 | [ce]3 x9 | x12 | x8 [EB]4 | [EB]3 z z4 [EA]4 | %23
 [FA]3 x5 x/4 x/4 x/4 x/4 x/4 x/4 x/4 x/4 x/4 x/4- x/ x | !arpeggio!x4 x8 | [=FAc]3 x9 | x12 | %27
 z4 [GB]4 [FB]4 | [EB]3 (3A/^G/A/ PA4- A3 G/A/ | B12 | E4- E2- E/E/D/C/ D3 B, | x12 | x12 | x12 | %34
 [^DFA]4 x8 | z3 G E4 ^D4 | z12 | x12 | z3 C/B,/ C3 x5 |[I:staff +1] [^G,B,]12 |] %40
[K:F][M:4/4][I:staff -1] D2 A3 BAG | FG A2 D2 G2- | GF E2 D3 E | F2 G2 A3 G | FE FE/D/ E A2 ^G | %45
 A2- AG ^FD G2- | GFED E2 FG | A=B^cd ecde | fed^c d=c B2 | A2 G2 F2 GF | %50
 E3 D/E/ FG/A/ G3/2F/4G/4 | AGFE D2 ^CD | ED^C=B, C2 DE | F2 GF EC F2- | F2 E4 D2 | CEFG ABcB | %56
 AGFE DEFG | dc =B4 A2- | A2 ^G2 A,2 E2- | EFED CD E2 |[I:staff +1] A,2[I:staff -1] z D- DC =B,2 | %61
[I:staff +1] A,2[I:staff -1] z G- GF E2 | D2 z C A^G A2 | ^G2 A2 d3 e | d3 c =B3 c | d2 G2 c4 | %66
 =B2 z2 G2 c2- | cdcB AB c2 | F2 B2- BA G2 | FEFG AGA=B | c B2 A BAGB | A4- A=Bcd | G2 A2- AGFE | %73
 DF B2- BAG^F | G6 ^F2 | G2 D2- D^CDE | FE D2 A2 D2- | DE F2 G4 | FGA=B ^c[I:staff +1]A,=B,^C | %79
[I:staff -1] D3 E F2 ED | ^CD E2- ED/C/ D2- | D[I:staff +1]CB,A, B,[I:staff -1]D G2- | %82
 GFED E2 ^F2 | GFED ^C2 DE | FEFG AG FE/D/ | ^C G2 F/E/ ^FGA=C | B,CD_E D2[I:staff +1] G,2- | %87
 G,^F,G,A, B,A, G,2 | x8 | x8 |[I:staff -1] FGAG- GF/E/ FG | A2[I:staff +1] A,2[I:staff -1] D3 _E | %92
 DCB,C D2[I:staff +1] G,F, | x8 | x8 | x8 |[I:staff -1] BAGF ED^CE | %97
[I:staff +1] A,[I:staff -1]GFE D2 dc | BAGB A d2 c- | c B2 A2 G2 F- | F E2 D ^CE A2- | ABAG FG A2 | %102
 D2 G2- G^FE_E | DBAG ^FD/E/ FG/A/ | B3 A G^FGA | DE^FG A/B/ c2 B/A/ | B2 z2 G4 | c6 d2 | %108
 c2 B2 A2 B2 | c4 F4 | B6 A2 | G4 F2 B2- | BdcB AB c2 | G2 c2- cB A2- | AD G2- GG F2- | %115
 FF_ED ^C2 D2- | D^C/=B,/ CE A3 B | A3 G F3 G | A4 D2 G2- | GF E2 ^FA, D2- | D_EDC B,C D2 | x8 | %122
 x8 | x8 | x8 | x8 | EBAG ^F4 |] %127
V:4
 x12 | x12 | x12 | x12 | x12 | x12 | x12 | x12 | x12 | x12 | x12 | x12 | E2 x10 | x12 | %14
 x8 G2 TF>E | x12 | x12 | x12 | %18
 x4 x/4 x/4 x/4 x/4 x/4 x/4 x/4 x/4 x/4 x/4 x/4 x/4 x/4 x/4 x/4 x/4 x/4 x/4 x/4 x/4 x/4 x/4- x/ x2 | %19
 x12 | x12 | x12 | x12 | x12 | x12 | x12 | x12 | x12 | x12 | x12 | A4 x8 | x12 | x12 | x12 | x12 | %35
 x4 x x3 x/8 x/8 x/8 x/8- x/ x3 | x12 | x12 | x12 | x12 |][K:F][M:4/4] x8 | x8 | x8 | x8 | x8 | %45
 x8 | x8 | x8 | x8 | x8 | x8 | x8 | x8 | x8 | x8 | x8 | x8 | x8 | x8 | x8 | x8 | x8 | x8 | x8 | %64
 x8 | x8 | x8 | x8 | x8 | x8 | x8 | x8 | x8 | x8 | x8 | x8 | x8 | x8 | x8 | x8 | x8 | x8 | x8 | %83
 x8 | x8 | x8 | x8 | x8 | x8 | x8 | x8 | x8 | x8 | x8 | x8 | x8 | x8 | x8 | x8 | x8 | x8 | x8 | %102
 x8 | x8 | x8 | x8 | x8 | x8 | x8 | x8 | x8 | x8 | x8 | x8 | x8 | x8 | x8 | x8 | x8 | x8 | x8 | %121
 x8 | x8 | x8 | x8 | x8 | x8 |] %127
V:5
 x12 | x12 | x12 | x12 | x12 | x12 | x12 | x12 | x12 | x12 | x12 | x12 | x12 | x12 | %14
 x10 x/4 x/4 x/4 x/4 x/4 x/4 x/ | x4 !arpeggio!x4 !arpeggio!x4 | x12 | x12 | x4 e4 d4 | x12 | x12 | %21
 x12 | x8 !arpeggio!x4 | !arpeggio!x3 x9 | x12 | !arpeggio!x3 x9 | x12 | %27
 x4 !arpeggio!x4 !arpeggio!x4 | %28
 x4 x/4 x/4 x/4 x/4 x/4 x/4 x/4 x/4 x/4 x/4 x/4 x/4 x/4 x/4 x/4 x/4 x/4 x/4 x/4 x/4 x/4 x/4 x/4 x/4 x/4 x/4- x/ x | %29
 x12 | x12 | x12 | x12 | x12 | !arpeggio!x4 x8 | x12 | x12 | x12 | x12 | x12 |][K:F][M:4/4] x8 | %41
 x8 | x8 | x8 | x8 | x8 | x8 | x8 | x8 | x8 | x8 | x8 | x8 | x8 | x8 | x8 | x8 | x8 | x8 | x8 | %60
 x8 | x8 | x8 | x8 | x8 | x8 | x8 | x8 | x8 | x8 | x8 | x8 | x8 | x8 | x8 | x8 | x8 | x8 | x8 | %79
 x8 | x8 | x8 | x8 | x8 | x8 | x8 | x8 | x8 | x8 | x8 | x8 | x8 | x8 | x8 | x8 | x8 | x8 | x8 | %98
 x8 | x8 | x8 | x8 | x8 | x8 | x8 | x8 | x8 | x8 | x8 | x8 | x8 | x8 | x8 | x8 | x8 | x8 | x8 | %117
 x8 | x8 | x8 | x8 | x8 | x8 | x8 | x8 | x8 | x8 |] %127
V:6
 x12 | x12 | x12 | x12 | x12 | x12 | x12 | x12 | x12 | x12 | x12 | x12 | x12 | x12 | F,4 x8 | x12 | %16
 x12 | x12 | x12 | x12 | x12 | x12 | x12 | x12 | x12 | x12 | x12 | x12 | x12 | x12 | x12 | x12 | %32
 x12 | x12 | x12 | x3 E,, B,,4 B,,4 | x12 | x12 | x7 A, F,4 | x12 |][K:F][M:4/4] x8 | x8 | x8 | %43
 x8 | x8 | x8 | x8 | x8 | x8 | x8 | x8 | x8 | x8 | x8 | x8 | x8 | x8 | x8 | x8 | x8 | x8 | x8 | %62
 x8 | x8 | x8 | x8 | x8 | x8 | x8 | x8 | x8 | x8 | x8 | x8 | x8 | x8 | x8 | x8 | x8 | x8 | x8 | %81
 x8 | x8 | x8 | x8 | x8 | x8 | x8 | D,^C,D,E, F,G,E,^F, | G,A,G,F, E,D,^C,B, | x8 | x8 | x8 | %93
 C,2 F,,2- F,,E,,F,,G,, | A,,G,,F,,_E, D,4- | D,C,B,,A,, B,,2 B,A, | x8 | x8 | x8 | x8 | x8 | x8 | %102
 x8 | x8 | x8 | x8 | x8 | x8 | x8 | x8 | x8 | x8 | x8 | x x/8 x/8 x/8 x/8 x/8 x/8 x/8 x/8 x6 | x8 | %115
 x8 | x8 | x8 | x8 | x8 | x8 | C,C/B,/ A,G, ^F, G,2 =F, | E,4- E,F,E,D, | ^C,4- C,D,C,=B,, | %124
 A,,4- A,,G,,F,,E,, | D,,C,B,,A,, G,,F,E,D, | x8 |] %127

